X:7
T:Boatman
L:1/8
K:Cmaj clef=treble
M:4/4
M:6/8
|: "G"g2c g2g | "F"fga "C"g2g | "F"agf "C"edc | "G"d3 d2e |
"F"fed "C"c2 c | "G"GAB "C"c2 c | "C"gfe "G"ded | "C"c3 c2 c :|
|: "C"gfe "G"d2d | "G"g^fg "F"ag=f | "C"efe "G"d2 G | "G"d3 d2 d |
"F"B2 c d2 e | "C"fed "G"c2 c | "G"ede "C"ged | "C"c3 c2 c :|

